rospo-dark/small/status/weather-fog-symbolic.svg

<?xml version="1.0" encoding="UTF-8" standalone="no"?>
<svg
   xmlns:dc="http://purl.org/dc/elements/1.1/"
   xmlns:cc="http://creativecommons.org/ns#"
   xmlns:rdf="http://www.w3.org/1999/02/22-rdf-syntax-ns#"
   xmlns:svg="http://www.w3.org/2000/svg"
   xmlns="http://www.w3.org/2000/svg"
   xmlns:sodipodi="http://sodipodi.sourceforge.net/DTD/sodipodi-0.dtd"
   xmlns:inkscape="http://www.inkscape.org/namespaces/inkscape"
   width="22"
   height="22"
   version="1.1"
   id="svg8"
   sodipodi:docname="weather-fog-symbolic.svg"
   inkscape:version="0.92.1 r">
  <metadata
     id="metadata14">
    <rdf:RDF>
      <cc:Work
         rdf:about="">
        <dc:format>image/svg+xml</dc:format>
        <dc:type
           rdf:resource="http://purl.org/dc/dcmitype/StillImage" />
      </cc:Work>
    </rdf:RDF>
  </metadata>
  <defs
     id="defs12" />
  <sodipodi:namedview
     pagecolor="#ffffff"
     bordercolor="#666666"
     borderopacity="1"
     objecttolerance="10"
     gridtolerance="10"
     guidetolerance="10"
     inkscape:pageopacity="0"
     inkscape:pageshadow="2"
     inkscape:window-width="1111"
     inkscape:window-height="480"
     id="namedview10"
     showgrid="false"
     inkscape:zoom="10.727273"
     inkscape:cx="-9.2538042"
     inkscape:cy="11"
     inkscape:window-x="0"
     inkscape:window-y="0"
     inkscape:window-maximized="0"
     inkscape:current-layer="svg8" />
  <g
     id="g4494"
     transform="translate(3,2.5)">
    <path
       id="path2"
       d="m 0,3 h 13 c 3,0 3,3 3,3 H 3 C 3,6 0,6 0,3 Z"
       style="opacity:0.3;fill:#d3dae3"
       inkscape:connector-curvature="0" />
    <path
       id="path4"
       d="M 13,7 H 0 c 0,3 3,3 3,3 h 13 c 0,0 0,-3 -3,-3 z"
       style="opacity:0.3;fill:#d3dae3"
       inkscape:connector-curvature="0" />
    <path
       id="path6"
       d="m 0,11 h 13 c 3,0 3,3 3,3 H 3 c 0,0 -3,0 -3,-3 z"
       style="opacity:0.3;fill:#d3dae3"
       inkscape:connector-curvature="0" />
  </g>
</svg>

<svg xmlns="http://www.w3.org/2000/svg" width="16" height="16" version="1.1">
 <path style="opacity:0.3;fill:#5c616c" d="M 0,3 H 13 C 16,3 16,6 16,6 H 3 C 3,6 0,6 0,3 Z"/>
 <path style="opacity:0.3;fill:#5c616c" d="M 13,7 H 0 C 0,10 3,10 3,10 H 16 C 16,10 16,7 13,7 Z"/>
 <path style="opacity:0.3;fill:#5c616c" d="M 0,11 H 13 C 16,11 16,14 16,14 H 3 C 3,14 0,14 0,11 Z"/>
</svg>
